X:1555
T:Cronin's Favorite
R:reel
N:"collected from Cronin"
B:"O'Neill's Dance Music of Ireland, 1555"
T: ro.ga ui .cronin.
Z:transcribed by John B. Walsh, walsh@math.ubc.ca 8/23/96
M:C|
L:1/8
K:G
(GF)|DGGF G2 (GA)|BGcA BGAF|DFFE F2 (FG)|AGAc BGED|
DGGF G2 (GA)|BAGA Bcde|fefd cAFA|BGAF G2||
(GA)|Gggf g2 (ga)|bgga bgaf|d^cde fefg|abag fdcA|
dggf g3(d|BA)GA Bcde|fefd cAFA|BGAF G2||
(GF)|DGGA BAGB|dcBd cBAG|FGAB cAFA|cBcA BGAF|
GFGA BABd|cBAB cdeg|fefd cAFA|BGAF G2||
(df)|gddf gbag|fede fgaf|eccd efge|dcBA GcBA|
G2 (GA) BABd|cBAB cdeg|fefd cAFA|BGAF G2||


